X: 90
T: BARNEY BRALLAGHAN
%R: jig
B: Jean White "100 Popular Hornpipes, Reels, Jigs and Country Dances", Boston 1880 p.37
F: http://www.loc.gov/resource/sm1880.09124.0#seq-1
Z: 2014 John Chambers <jc:trillian.mit.edu>
M: 9/8
L: 1/8
K: D
% - - - - - - - - - - - - - - - - - - - - - - - - - - - - -
|:\
F2A ABA ABA | F2A ABA d2f |\
F2A ABA ABA | E2e e2d cBA :|
|:\
f2a f2a fed | f2a f2a f2d |\
f2a f2a fed | e2e efd cBA :|
|:\
f3 a3 d3 | e2f ged cBA |\
f3 e3 d3 | B2B A2G FED H:|
% - - - - - - - - - - - - - - - - - - - - - - - - - - - - -

%%sep 1 1 500
%%sep 1 1 500
